src/shared/_assets/icons/script.svg

<svg width="15" height="15" viewBox="0 0 15 15" fill="none" xmlns="http://www.w3.org/2000/svg">
<path d="M4.16667 5C4.40278 5 4.60069 4.92014 4.76042 4.76042C4.92014 4.60069 5 4.40278 5 4.16667C5 3.93056 4.92014 3.73264 4.76042 3.57292C4.60069 3.41319 4.40278 3.33333 4.16667 3.33333C3.93056 3.33333 3.73264 3.41319 3.57292 3.57292C3.41319 3.73264 3.33333 3.93056 3.33333 4.16667C3.33333 4.40278 3.41319 4.60069 3.57292 4.76042C3.73264 4.92014 3.93056 5 4.16667 5ZM4.16667 8.33333C4.40278 8.33333 4.60069 8.25347 4.76042 8.09375C4.92014 7.93403 5 7.73611 5 7.5C5 7.26389 4.92014 7.06597 4.76042 6.90625C4.60069 6.74653 4.40278 6.66667 4.16667 6.66667C3.93056 6.66667 3.73264 6.74653 3.57292 6.90625C3.41319 7.06597 3.33333 7.26389 3.33333 7.5C3.33333 7.73611 3.41319 7.93403 3.57292 8.09375C3.73264 8.25347 3.93056 8.33333 4.16667 8.33333ZM4.16667 11.6667C4.40278 11.6667 4.60069 11.5868 4.76042 11.4271C4.92014 11.2674 5 11.0694 5 10.8333C5 10.5972 4.92014 10.3993 4.76042 10.2396C4.60069 10.0799 4.40278 10 4.16667 10C3.93056 10 3.73264 10.0799 3.57292 10.2396C3.41319 10.3993 3.33333 10.5972 3.33333 10.8333C3.33333 11.0694 3.41319 11.2674 3.57292 11.4271C3.73264 11.5868 3.93056 11.6667 4.16667 11.6667ZM1.66667 15C1.20833 15 0.815972 14.8368 0.489583 14.5104C0.163194 14.184 0 13.7917 0 13.3333V1.66667C0 1.20833 0.163194 0.815972 0.489583 0.489583C0.815972 0.163194 1.20833 0 1.66667 0H10.8333L15 4.16667V13.3333C15 13.7917 14.8368 14.184 14.5104 14.5104C14.184 14.8368 13.7917 15 13.3333 15H1.66667ZM1.66667 13.3333H13.3333V5H10V1.66667H1.66667V13.3333ZM1.66667 1.66667V5V1.66667V5V13.3333V1.66667Z" fill="#A1A1A1"/>
</svg>

<svg xmlns="http://www.w3.org/2000/svg" fill="none" viewBox="0 0 15 15"><path fill="currentColor" d="M4.167 5q.354 0 .593-.24.24-.24.24-.593a.8.8 0 0 0-.24-.594.8.8 0 0 0-.593-.24.8.8 0 0 0-.594.24.8.8 0 0 0-.24.594q0 .354.24.593.24.24.594.24m0 3.333q.354 0 .593-.24Q5 7.855 5 7.5a.8.8 0 0 0-.24-.594.8.8 0 0 0-.593-.24.8.8 0 0 0-.594.24.8.8 0 0 0-.24.594q0 .354.24.594t.594.24m0 3.334q.354 0 .593-.24.24-.24.24-.594a.8.8 0 0 0-.24-.593.8.8 0 0 0-.593-.24.8.8 0 0 0-.594.24.8.8 0 0 0-.24.593q0 .354.24.594t.594.24M1.667 15q-.688 0-1.177-.49A1.6 1.6 0 0 1 0 13.333V1.667Q0 .979.49.49.979 0 1.667 0h9.166L15 4.167v9.166q0 .688-.49 1.177-.489.49-1.177.49zm0-1.667h11.666V5H10V1.667H1.667zm0-11.666V5zv11.666z"/></svg>
